assets/skill/herr-github.svg

<svg width="57" height="57" viewBox="0 0 57 57" fill="none" xmlns="http://www.w3.org/2000/svg">
<rect x="0.124268" width="56.7516" height="56.7516" rx="8.25478" fill="url(#paint0_linear_92_658)"/>
<path fill-rule="evenodd" clip-rule="evenodd" d="M28.498 9.54468C17.8146 9.54468 9.15283 18.1887 9.15283 28.8534C9.15283 37.3834 14.6958 44.6199 22.3842 47.174C23.3519 47.3507 23.7045 46.7546 23.7045 46.242C23.7045 45.7849 23.6884 44.5701 23.6788 42.9592C18.2969 44.1258 17.1617 40.3706 17.1617 40.3706C16.2818 38.1411 15.013 37.5473 15.013 37.5473C13.2563 36.3486 15.1458 36.3727 15.1458 36.3727C17.0876 36.5101 18.1093 38.3628 18.1093 38.3628C19.8354 41.313 22.6378 40.4606 23.74 39.9673C23.9163 38.7195 24.4146 37.8687 24.9685 37.3858C20.6726 36.899 16.1554 35.2415 16.1554 27.8435C16.1554 25.7361 16.9097 24.012 18.1471 22.6622C17.9483 22.1737 17.2841 20.211 18.3363 17.5524C18.3363 17.5524 19.9609 17.0334 23.657 19.5321C25.2004 19.1039 26.8556 18.8893 28.5004 18.8821C30.1435 18.8893 31.7988 19.1039 33.3445 19.5321C37.0382 17.0334 38.6596 17.5524 38.6596 17.5524C39.715 20.211 39.0509 22.1737 38.852 22.6622C40.0918 24.012 40.8413 25.7361 40.8413 27.8435C40.8413 35.2608 36.3168 36.8925 32.0065 37.3706C32.702 37.9667 33.3203 39.1445 33.3203 40.9466C33.3203 43.5272 33.297 45.6097 33.297 46.242C33.297 46.7594 33.6448 47.3604 34.627 47.1716C42.309 44.6127 47.8471 37.381 47.8471 28.8534C47.8471 18.1887 39.1845 9.54468 28.498 9.54468Z" fill="#010101"/>
<defs>
<linearGradient id="paint0_linear_92_658" x1="28.5001" y1="0" x2="28.5001" y2="56.7516" gradientUnits="userSpaceOnUse">
<stop stop-color="#FDFDFD"/>
<stop offset="1" stop-color="#F5F4F4"/>
</linearGradient>
</defs>
</svg>

<svg xmlns="http://www.w3.org/2000/svg" width="57" height="57" fill="none" viewBox="0 0 57 57"><rect width="56.752" height="56.752" x=".124" fill="url(#paint0_linear_92_658)" rx="8.255"/><path fill="#010101" fill-rule="evenodd" d="M28.498 9.545c-10.683 0-19.345 8.644-19.345 19.308 0 8.53 5.543 15.767 13.231 18.321.968.177 1.32-.42 1.32-.932 0-.457-.016-1.672-.025-3.283-5.382 1.167-6.517-2.588-6.517-2.588-.88-2.23-2.149-2.824-2.149-2.824-1.757-1.198.133-1.174.133-1.174 1.942.137 2.963 1.99 2.963 1.99 1.726 2.95 4.529 2.098 5.631 1.604.176-1.248.675-2.098 1.229-2.581-4.296-.487-8.814-2.145-8.814-9.543 0-2.107.755-3.831 1.992-5.18-.199-.49-.863-2.452.19-5.11 0 0 1.624-.52 5.32 1.98a18.6 18.6 0 0 1 4.843-.65c1.643.006 3.299.22 4.844.65 3.694-2.5 5.316-1.98 5.316-1.98 1.055 2.658.39 4.62.192 5.11 1.24 1.349 1.99 3.073 1.99 5.18 0 7.418-4.525 9.05-8.835 9.528.695.596 1.313 1.773 1.313 3.576 0 2.58-.023 4.663-.023 5.295 0 .517.348 1.118 1.33.93 7.682-2.56 13.22-9.791 13.22-18.319 0-10.664-8.663-19.308-19.349-19.308" clip-rule="evenodd"/><defs><linearGradient id="paint0_linear_92_658" x1="28.5" x2="28.5" y1="0" y2="56.752" gradientUnits="userSpaceOnUse"><stop stop-color="#fdfdfd"/><stop offset="1" stop-color="#f5f4f4"/></linearGradient></defs></svg>
